X:1
T:God Sees the Little Sparrow Fall
T:God Sees the Little Sparrow Fall
T:Solomon W. Straub
T:Maria Straub, 1874
T:Public Domain Courtesy of the Cyber Hymnal™
C:Solomon W. Straub
Z:Public Domain
Z:Courtesy of the Cyber Hymnal™
%%score ( 1 2 ) 3
L:1/8
Q:1/4=112
M:4/4
K:F
V:1 treble 
V:2 treble 
V:3 bass 
V:1
 C2 | [CF]2 [CF]2 [EG]2 [EG]2 | [FA]2 [Fc]2 [EG]2 [GB]2 | [FA]2 [FA]2 [CG]2 F2 | [EG]6 C2 | %5
w: 1.~God|sees the lit- tle|spar- row fall, It|meets His ten- der|view; If|
w: 2.~He|paints the li- ly|of the field, Per-|fumes each lil- y|bell; If|
w: 3.~God|made the lit- tle|birds and flow’rs, And|all things large and|small; He’ll|
 [CF]2 [CF]2 [EG]2 [EG]2 | [FA]2 [Fc]2 [EG]2 [EB]2 | [FA]2 F2 [DG]2 [CE]2 | [CF]6 || %9
w: God so loves the|lit- tle birds, I|know He loves me,|too.|
w: He so loves the|lit- tle flow’rs, I|know He loves me|well.|
w: not for- get His|lit- tle ones, I|know He loves them|all.|
"^Refrain" [Fc]2 | [Fd]2 [Fc]2 [FA]2 [Fc]2 | [Fd]2 [Fc]2 [FA]2 [Fc]2 | [Fd]2 [Fc]2 [FA]2 [Fc]2 | %13
w: ||||
w: He|loves me, too, He|loves me, too, I|know He loves me,|
w: ||||
 [EG]6 C2 | [CF]2 [CF]2 [EG]2 [EG]2 | [FA]2 [Fc]2 [EG]2 [EB]2 | [FA]2 F2 [DG]2 [CE]2 | [CF]6 |] %18
w: |||||
w: too; Be-|cause He loves the|lit- tle things, I|know He loves me,|too.|
w: |||||
V:2
 C2 | x8 | x8 | x6 F2 | x6 C2 | x8 | x8 | x8 | x6 || x2 | x8 | x8 | x8 | x8 | x8 | x8 | x8 | x6 |] %18
V:3
 [F,A,]2 | [F,A,]2 [F,A,]2 [C,C]2 [C,C]2 | [F,C]2 [A,,C]2 [C,C]2 [C,C]2 | %3
 [F,C]2 [F,C]2 [E,C]2 [D,=B,]2 | [C,C]6 [C,B,]2 | [F,A,]2 [F,A,]2 [C,C]2 [C,C]2 | %6
 [F,C]2 [A,,C]2 [C,C]2 [C,C]2 | [F,C]2 [A,,C]2 [B,,B,]2 [C,B,]2 | [F,A,]6 || [F,A,]2 | %10
 [F,B,]2 [F,A,]2 [F,C]2 [F,A,]2 | [F,B,]2 [F,A,]2 [F,C]2 [F,A,]2 | [F,B,]2 [F,A,]2 [F,C]2 [A,,C]2 | %13
 [C,C]6 [C,B,]2 | [F,A,]2 [F,A,]2 [C,C]2 [C,C]2 | [F,C]2 [A,,C]2 [C,C]2 [C,C]2 | %16
 [F,C]2 [A,,C]2 [B,,B,]2 [C,B,]2 | [F,,F,A,]6 |] %18

